X:391
T:Tom Tulley's Hornpipe
M:4/4
L:1/8
K:G
Bc | dcBA Ggfg | e4 d4 | cdcB ABAG | F4 E4 | 
DEFG A2 B2 | c2 de d2 c2 | BAGA D2 F2 | G4 G2 :|| 
d2 | g2 bg e2 ag | f4 d4 | g2 bg e2 ag | f4 d2 ef | 
gddd gddd | gdgd gddd | g3 f edcB | ABAG F3 E | 
DEFG A2 B2 | c2 de d2 c2 | BAGA D2F2 | G4 G2 :|| 

